src/assets/images/play-btn.svg

<svg fill="none" height="54" viewBox="0 0 54 54" width="54" xmlns="http://www.w3.org/2000/svg" xmlns:xlink="http://www.w3.org/1999/xlink"><linearGradient id="a" gradientUnits="userSpaceOnUse" x1=".382105" x2="53.6182" y1="25.3906" y2="28.6094"><stop offset=".15" stop-color="#2aabee"/><stop offset="1" stop-color="#0ccfcf"/></linearGradient><path d="m21.6668 39 16-12-16-12zm5.3334-38.666666c-14.72 0-26.666704 11.946666-26.666704 26.666666s11.946704 26.6667 26.666704 26.6667 26.6666-11.9467 26.6666-26.6667-11.9466-26.666666-26.6666-26.666666zm0 47.999966c-11.76 0-21.33337-9.5733-21.33337-21.3333s9.57337-21.33333 21.33337-21.33333 21.3333 9.57333 21.3333 21.33333-9.5733 21.3333-21.3333 21.3333z" fill="url(#a)"/></svg>

<svg width="54" height="54" viewBox="0 0 54 54" fill="none" xmlns="http://www.w3.org/2000/svg">
<path d="M21.6668 39L37.6668 27L21.6668 15V39ZM27.0002 0.333334C12.2802 0.333334 0.333496 12.28 0.333496 27C0.333496 41.72 12.2802 53.6667 27.0002 53.6667C41.7202 53.6667 53.6668 41.72 53.6668 27C53.6668 12.28 41.7202 0.333334 27.0002 0.333334ZM27.0002 48.3333C15.2402 48.3333 5.66683 38.76 5.66683 27C5.66683 15.24 15.2402 5.66667 27.0002 5.66667C38.7602 5.66667 48.3335 15.24 48.3335 27C48.3335 38.76 38.7602 48.3333 27.0002 48.3333Z" fill="url(#paint0_linear_626_30527)"/>
<defs>
<linearGradient id="paint0_linear_626_30527" x1="0.382105" y1="25.3906" x2="53.6182" y2="28.6094" gradientUnits="userSpaceOnUse">
<stop offset="0.15" stop-color="#2AABEE"/>
<stop offset="1" stop-color="#0CCFCF"/>
</linearGradient>
</defs>
</svg>
